packages/sources/assets/src/assets/flag-cy.svg

<svg width="28" height="20" viewBox="0 0 28 20" fill="none" xmlns="http://www.w3.org/2000/svg">
<rect x="0.25" y="0.25" width="27.5" height="19.5" rx="1.75" fill="white" stroke="#F5F5F5" stroke-width="0.5"/>
<mask id="mask0_503_4860" style="mask-type:alpha" maskUnits="userSpaceOnUse" x="0" y="0" width="28" height="20">
<rect x="0.25" y="0.25" width="27.5" height="19.5" rx="1.75" fill="white" stroke="white" stroke-width="0.5"/>
</mask>
<g mask="url(#mask0_503_4860)">
<path fill-rule="evenodd" clip-rule="evenodd" d="M20.0002 3.33335C20.3633 3.1518 20.7318 3.56925 20.5066 3.90703L20.0674 4.56582C20.023 4.6324 19.9659 4.68954 19.8993 4.73393L18.0551 5.9634C18.0186 5.98776 17.9845 6.01566 17.9535 6.0467L17.8049 6.19528C17.5446 6.45563 17.5446 6.87774 17.8049 7.13809L18.1954 7.52862C18.4558 7.78897 18.4558 8.21108 18.1954 8.47143L17.6733 8.99358C17.4704 9.19649 17.1604 9.24679 16.9037 9.11846L16.5964 8.96483C16.2671 8.80017 15.8667 8.93365 15.702 9.26297L15.457 9.75303C15.3779 9.91118 15.2393 10.0314 15.0715 10.0873L13.4361 10.6325C13.3682 10.6551 13.297 10.6667 13.2253 10.6667H12.4122C12.1597 10.6667 11.9288 10.8094 11.8159 11.0352L11.6316 11.4037C11.467 11.7331 11.0665 11.8665 10.7372 11.7019L8.76359 10.7151C8.6995 10.683 8.641 10.6409 8.59033 10.5902L7.52876 9.52862C7.40373 9.40359 7.3335 9.23402 7.3335 9.05721V8.47143C7.3335 8.21108 7.54455 8.00002 7.8049 8.00002C7.92992 8.00002 8.04983 7.95035 8.13823 7.86195L9.13823 6.86195C9.26326 6.73693 9.43283 6.66669 9.60964 6.66669H10.1863C10.4733 6.66669 10.728 6.48307 10.8188 6.21084L11.1474 5.22501C11.2537 4.90605 11.5809 4.71617 11.9106 4.78211L14.5198 5.30395C14.6166 5.32331 14.7165 5.32094 14.8123 5.29699L17.2625 4.68444C17.3097 4.67264 17.3554 4.65571 17.399 4.63396L18.6668 4.00002L20.0002 3.33335Z" fill="#E7832C"/>
<path fill-rule="evenodd" clip-rule="evenodd" d="M14.0002 16C14.3684 16 14.6668 15.7015 14.6668 15.3334C14.6668 14.9652 14.3684 14.6667 14.0002 14.6667C13.632 14.6667 13.3335 14.9652 13.3335 15.3334C13.3335 15.7015 13.632 16 14.0002 16Z" fill="#445128"/>
<path opacity="0.75" d="M16 14.6667C16 14.6667 18 14 18.6667 12.6667" stroke="#445128" stroke-width="1.33333" stroke-linecap="round"/>
<path opacity="0.75" d="M12 14.6667C12 14.6667 10 14 9.33333 12.6667" stroke="#445128" stroke-width="1.33333" stroke-linecap="round"/>
</g>
</svg>

<svg width="28" height="20" fill="none" xmlns="http://www.w3.org/2000/svg"><rect x=".25" y=".25" width="27.5" height="19.5" rx="1.75" fill="#fff" stroke="#F5F5F5" stroke-width=".5"/><mask id="a" style="mask-type:alpha" maskUnits="userSpaceOnUse" x="0" y="0" width="28" height="20"><rect x=".25" y=".25" width="27.5" height="19.5" rx="1.75" fill="#fff" stroke="#fff" stroke-width=".5"/></mask><g mask="url(#a)"><path fill-rule="evenodd" clip-rule="evenodd" d="M20 3.333c.363-.181.732.236.507.574l-.44.659a.606.606 0 0 1-.168.168l-1.844 1.23a.666.666 0 0 0-.102.083l-.148.148a.667.667 0 0 0 0 .943l.39.39c.26.261.26.683 0 .943l-.522.523a.667.667 0 0 1-.77.124l-.307-.153a.667.667 0 0 0-.894.298l-.245.49a.666.666 0 0 1-.386.334l-1.635.546a.668.668 0 0 1-.21.034h-.814a.667.667 0 0 0-.596.368l-.184.369a.667.667 0 0 1-.895.298l-1.973-.987a.667.667 0 0 1-.174-.125L7.53 9.53a.667.667 0 0 1-.196-.472v-.586c0-.26.212-.471.472-.471.125 0 .245-.05.333-.138l1-1a.667.667 0 0 1 .472-.195h.576a.667.667 0 0 0 .633-.456l.328-.986a.667.667 0 0 1 .764-.443l2.609.522c.097.02.197.017.292-.007l2.45-.613a.67.67 0 0 0 .137-.05L18.667 4 20 3.333Z" fill="#E7832C"/><path fill-rule="evenodd" clip-rule="evenodd" d="M14 16a.667.667 0 1 0 0-1.333A.667.667 0 0 0 14 16Z" fill="#445128"/><path opacity=".75" d="M16 14.667s2-.667 2.667-2m-6.667 2s-2-.667-2.667-2" stroke="#445128" stroke-width="1.333" stroke-linecap="round"/></g></svg>
